X:1
T:Dunphy's
M:4/4
L:1/8
R:Hornpipe
D:Eddie Cahil
Z:N. Ishi
Z: Contributed 2015-12-07 02:20:57 by Maurice Gerard Morrow  gmorrow@ns.sympatico.ca
K:G
D2|G2BA GB dg|fe ed ec AG|FA DE FG Ac|(3BAG (3AGF GF ED|
G2BA GB dg|fe ed ec AG|FA dB cA FG|AG GF G2:: Bc|
(3ded Bd gd Bd|(3gfg af gd Bd|(3gag fg ed ^cd|ed d^c d2 (3def|
g2 dc (3BdB GB|ec AG (3FAF DF|GB dB cA FG|AG GF G2:||
